images/simple-way2.svg

<svg width="14" height="14" viewBox="0 0 14 14" fill="none" xmlns="http://www.w3.org/2000/svg">
<g clip-path="url(#clip0_1_290)">
<path d="M11.5391 11.9219H3.74609C3.06759 11.9219 2.51562 11.3699 2.51562 10.6914C2.51562 10.0129 3.06759 9.46094 3.74609 9.46094H4.97656L4.23716 10.2812H3.74609C3.5198 10.2812 3.33594 10.4651 3.33594 10.6914C3.33594 10.9177 3.5198 11.1016 3.74609 11.1016H11.5391V11.9219Z" fill="#F9C2D2"/>
<path d="M7.84766 11.1016H11.5391V11.9219H7.84766V11.1016Z" fill="#F98AAB"/>
<path opacity="0.5" d="M2.96349 4.53923L2.59695 2.89844H0V2.07812H3.25462L3.9652 5.26004L2.96349 4.53923Z" fill="#F98AAB"/>
<path d="M9.60994 4.67966L9.48739 4.53906H2.96533L4.23827 10.2812H11.4476L12.8932 4.68727C12.6124 4.75743 10.9513 6.22068 9.60994 4.67966ZM11.6735 6.12801L11.4482 7H9.52477L9.62906 5.7487C10.2306 6.11529 10.9699 6.26109 11.6735 6.12801ZM6.9955 7L6.85875 5.35938H8.83874L8.70199 7H6.9955ZM8.63366 7.82031L8.49692 9.46094H7.20055L7.0638 7.82031H8.63366ZM6.03601 5.35938L6.17275 7H4.35122L3.98752 5.35938H6.03601ZM4.53306 7.82031H6.24108L6.37783 9.46094H4.89678L4.53306 7.82031ZM9.31972 9.46094L9.45646 7.82031H11.2363L10.8124 9.46094H9.31972Z" fill="#F9C2D2"/>
<path d="M9.60884 4.67966L9.48629 4.53906H7.84766V5.35938H8.83764L8.70089 7H7.84766V7.82031H8.63256L8.49581 9.46094H7.84766V10.2812H11.4465L12.8921 4.68727C12.6113 4.7574 10.9502 6.22065 9.60884 4.67966ZM10.8113 9.46094H9.31861L9.45536 7.82031H11.2352L10.8113 9.46094ZM11.6724 6.12801L11.4471 7H9.52366L9.62795 5.7487C10.2295 6.11529 10.9688 6.26109 11.6724 6.12801Z" fill="#F98AAB"/>
<path d="M5.38672 13.5625C4.70821 13.5625 4.15625 13.0105 4.15625 12.332C4.15625 11.6535 4.70821 11.1016 5.38672 11.1016C6.06523 11.1016 6.61719 11.6535 6.61719 12.332C6.61719 13.0105 6.06523 13.5625 5.38672 13.5625Z" fill="#665151"/>
<path d="M9.48828 13.5625C8.80977 13.5625 8.25781 13.0105 8.25781 12.332C8.25781 11.6535 8.80977 11.1016 9.48828 11.1016C10.1668 11.1016 10.7188 11.6535 10.7188 12.332C10.7188 13.0105 10.1668 13.5625 9.48828 13.5625Z" fill="#4D3535"/>
<path d="M11.1289 6.17969C9.50195 6.17969 8.25781 4.85045 8.25781 3.30859C8.25781 1.72564 9.54595 0.4375 11.1289 0.4375C12.7119 0.4375 14 1.72564 14 3.30859C14 4.93005 12.6829 6.17969 11.1289 6.17969Z" fill="#F9C2D2"/>
<path d="M5.38672 12.7422C5.61324 12.7422 5.79688 12.5586 5.79688 12.332C5.79688 12.1055 5.61324 11.9219 5.38672 11.9219C5.1602 11.9219 4.97656 12.1055 4.97656 12.332C4.97656 12.5586 5.1602 12.7422 5.38672 12.7422Z" fill="#FFF7E6"/>
<path d="M9.48828 12.7422C9.7148 12.7422 9.89844 12.5586 9.89844 12.332C9.89844 12.1055 9.7148 11.9219 9.48828 11.9219C9.26176 11.9219 9.07812 12.1055 9.07812 12.332C9.07812 12.5586 9.26176 12.7422 9.48828 12.7422Z" fill="#FFEACC"/>
<path d="M14 3.30859C14 1.72564 12.7119 0.4375 11.1289 0.4375V6.17969C12.6829 6.17969 14 4.93005 14 3.30859Z" fill="#F98AAB"/>
<path d="M12.3594 2.89844H11.5391V2.07812H10.7188V2.89844H9.89844V3.71875H10.7188V4.53906H11.5391V3.71875H12.3594V2.89844Z" fill="white"/>
<path d="M11.1289 2.07812V4.53906H11.5391V3.71875H12.3594V2.89844H11.5391V2.07812H11.1289Z" fill="white"/>
</g>
<defs>
<clipPath id="clip0_1_290">
<rect width="14" height="14" fill="white"/>
</clipPath>
</defs>
</svg>

<svg xmlns="http://www.w3.org/2000/svg" width="14" height="14" fill="none"><g clip-path="url(#a)"><path fill="#F9C2D2" d="M11.54 11.922H3.745c-.678 0-1.23-.552-1.23-1.23 0-.68.552-1.231 1.23-1.231h1.23l-.739.82h-.49a.41.41 0 0 0 0 .82h7.792v.82Z"/><path fill="#F98AAB" d="M7.848 11.102h3.691v.82H7.848v-.82Z"/><path fill="#F98AAB" d="m2.963 4.54-.366-1.642H0v-.82h3.255l.71 3.182-1.002-.72Z" opacity=".5"/><path fill="#F9C2D2" d="m9.61 4.68-.123-.14H2.965l1.273 5.741h7.21l1.445-5.594c-.28.07-1.942 1.534-3.283-.007Zm2.064 1.448L11.447 7H9.525l.104-1.251c.602.366 1.34.512 2.045.379ZM6.996 7l-.137-1.64h1.98L8.702 7H6.995Zm1.638.82-.137 1.64H7.2l-.137-1.64h1.57ZM6.036 5.36 6.173 7H4.35l-.363-1.64h2.048ZM4.533 7.82h1.708l.137 1.64H4.897l-.364-1.64ZM9.32 9.46l.136-1.64h1.78l-.424 1.64H9.32Z"/><path fill="#F98AAB" d="m9.609 4.68-.123-.14H7.848v.82h.99L8.7 7h-.853v.82h.785l-.137 1.64h-.648v.821h3.599l1.445-5.594c-.28.07-1.942 1.534-3.283-.007Zm1.202 4.78H9.32l.136-1.64h1.78l-.424 1.64Zm.861-3.332L11.447 7H9.524l.104-1.251c.601.366 1.34.512 2.044.379Z"/><path fill="#665151" d="M5.387 13.563a1.232 1.232 0 0 1 0-2.46c.678-.001 1.23.55 1.23 1.229 0 .678-.552 1.23-1.23 1.23Z"/><path fill="#4D3535" d="M9.488 13.563a1.232 1.232 0 0 1 0-2.46c.679-.001 1.23.55 1.23 1.229 0 .678-.551 1.23-1.23 1.23Z"/><path fill="#F9C2D2" d="M11.129 6.18a2.872 2.872 0 0 1-2.871-2.871 2.875 2.875 0 0 1 2.87-2.872A2.875 2.875 0 0 1 14 3.31a2.868 2.868 0 0 1-2.871 2.87Z"/><path fill="#FFF7E6" d="M5.387 12.742a.41.41 0 1 0 0-.82.41.41 0 0 0 0 .82Z"/><path fill="#FFEACC" d="M9.488 12.742a.41.41 0 1 0 0-.82.41.41 0 0 0 0 .82Z"/><path fill="#F98AAB" d="M14 3.309A2.875 2.875 0 0 0 11.129.437V6.18A2.868 2.868 0 0 0 14 3.309Z"/><path fill="#fff" d="M12.36 2.898h-.82v-.82h-.821v.82h-.82v.82h.82v.821h.82v-.82h.82v-.82Z"/><path fill="#fff" d="M11.129 2.078V4.54h.41v-.82h.82v-.82h-.82v-.82h-.41Z"/></g><defs><clipPath id="a"><path fill="#fff" d="M0 0h14v14H0z"/></clipPath></defs></svg>
